X: 36192
T: Scottish Horse, The
R: jig
M: 6/8
K: Amixolydian
A/B/|c3 e>cA|d2 f a2 f|e>dc c<Ae|B3 B2
A/B/|c3 e>cA|d2 f a2 f|e>cA B2 e|A3 A2:|
e|a2 e c2 e|d2 f a2 f|e>dc c<Ae|B3 B2
[1 e|a2 e c2 e|d2 f a2 f|e>cA B2 e|A3 A2:|
[2 A/B/|c3 e>cA|d2 f a2 f|e>cA B2 e|A3 A2||
e|A>ce e2 a|d>fd d2 f|e>dc c<Ae|B3 B2
e|A>ce e2 a|d>fd d2 f|e>cA B2 e|A3 A2:|
g|a>ga g>fe|f<af e>cA|e>dc c<Ae|B3 B2
[1 g|a>ga g>fe|f<af e>cA|e>cA c2 e|A3 A:|
[2 e|A>ce e2 a|d>fd d2 f|e>cA B2 e|A3 A2||

